!!!OTL: Der Engel und die Hirten (4-8), S. 10
!!!id: P0569
**kern
*clefG2
*k[b-]
*F:
{4f
=1
2f
4a
=2
4f
4c
4a
=3
4f
4c
4a
=4
2f}
=5
{4a
=6
2a
4cc
=7
2a
4cc
=8
4b-
4g
4b-
=9
2a}
=10
{8a
8g
=11
2f
4a
=12
2c
4a
=13
2f
8a
8b-
=14
2cc}
=15
{4f
=16
2f
4f
=17
2f
4f
=18
4f
4g
4a
=19
2f}
=20
{4a
=21
2a
4cc
=22
2a
4cc
=23
4b-
4g
4b-
=24
2a}
=25
{8a
8g
=26
2f
4a
=27
2c
4a
=28
2f
8a
8b-
=29
2.cc}
=30
{4f
4f
4f
=31
4f
4g
4a
=32
2f}
=33
{4a
=34
4a
4b-
4cc
=35
2a
4cc
=36
4cc
4dd
4dd
=37
2dd}
=38
{4dd
=39
4dd
4cc
4b-
=40
2.a
=41
[2g
8.g]
16f
=42
2f}
=43
{4f
=44
4f
4c
4a
=45
4f
4c
4a
=46
4f
4c
8.a
16g
=47
2f}
=48
{4cc
=49
4dd
4cc
4b-
=50
2.a
=51
[2g
8.g]
16f
=52
2f}
==
*-
!!!minrhy: 16
!!!meters: 3/4 ]  ZZ[11
!!!cut: Der Engel und die Hirten (4-8), S. 10
!!!reg: Lothringen
!!!trd: PINCK, Louis: Verklingende Weisen Bd 4, Kassel 1939
!!!rhy1: X__  X___X__  X__X__X__  X__X__X__  X___   (x4)
!!!rhy2: X__  X___X__  X___X__  X__X__X__  X___
!!!key: P0569  16  F 3/4 ]  ZZ[11
!!!mod: SECHSTONSKALA DUR ?]  AMBITUS[9
!!!kad: 13513516111
!!!akz: 1111_3343_1-515_1111_3343_1-515_111_3356_6321_1111_6321_
!!!fot: 'a__as"b__aw_as"b__c__d__e__av_ew_
!!!for: 'a__b__c__b__b__cv_d__e__f__dw_f__
!!!fok: '^__^__Va_^__^__Va_^__/__\__^__\__
!! PHRAS[VORWIEGEND AUFTAKTIG]
!!!fkt: geistliches, religiöses Lied
!! LOTH VKL
!! PR[2] 2K[4] 2G[21] 3K[13] 3G[0] 4A[2] 4Ü[0] 5A[0] 6K[0] 6G[0]
!! 7K[0] 7G[0] 8A[0] MEHR[0] SI[40] ABS[47] SR[26] SP[15]
!! ST[12] 2k[13] 2g[36] 3k[9] 3g[0] 4d[0] 4ü[0] 5d[0] 6k[0] 6g[0]
!! 7k[0] 7g[0] 8d[0] mehr[0] si[57] dm[-17] sr[49] sp[9]
!! 1F[53] 2F[30] 3F[17] 4F[0] LF[0] 2P[0] 3P[0] 4P[0] TRI[0] DF[3] AB[53]
!! TF[0] U3K[0] U3[0] U4[0] U4Ü[0] U5[0] U6K[0] U6[0] U7K[0] U7[0]
!! N1[17] N2K[0] N2[25] N3K[0] N3[29] N4[13] N4Ü[0] N5[17] N6K[0] N6[0]
!!!n7k: 0] N7[0] O1[0] O2K[0] O2[0] O3K[0] O3[0] HÖ[0
